X: 24341
T: Louie's First Tune
R: barndance
M: 4/4
K: Gmajor
|:BcBA G2B,2|D3E D2GA|BcBA G2C2|E3F E2AB|
c2cB cBAG|F3G F2E2|1 D2DE D2C2|B,3C B,2GA:|2 DFAc BGAF|G3A G4||
|:d3c B4|B2c2 d4|d2g2 B2e2|d3B c2B2|
A2B2 c2d2|fgfe d2c2|BcBA G2A2|B2Bc d2dB|
A2B2 c2cc|(3BcB A2 G4|G4:|

